lib/brands/icons/behance.svg

<svg xmlns="http://www.w3.org/2000/svg" fill="none" aria-hidden="true" viewBox="0 0 48 48"><g id="behance-Icon"><path id="Vector" fill="#1769FF" d="M38.3931 14.2264V16.4172H29.435V14.2264H38.3931ZM31.4337 31.0082C32.0939 31.6384 33.0393 31.9535 34.2547 31.9535C35.14 31.9535 35.9053 31.7434 36.5505 31.2933C37.1957 30.8581 37.5708 30.3779 37.7209 29.8828H41.6072C41.007 31.8034 40.0317 33.1839 38.7562 34.0092C37.4808 34.8495 35.9353 35.2546 34.1346 35.2546C32.8892 35.2546 31.7638 35.0595 30.7285 34.6544C29.7231 34.2493 28.8678 33.6791 28.1476 32.9438C27.4574 32.2086 26.9172 31.3233 26.527 30.2879C26.1519 29.2526 25.9718 28.1122 25.9718 26.8817C25.9718 25.6663 26.1669 24.5709 26.5721 23.5356C26.9772 22.4852 27.5474 21.6149 28.2526 20.8497C29.0029 20.0844 29.8582 19.4992 30.8635 19.0491C31.8689 18.5989 32.9642 18.4038 34.1947 18.4038C35.5601 18.4038 36.7305 18.6439 37.7659 19.1841C38.7712 19.6943 39.5965 20.4145 40.2567 21.2848C40.917 22.1701 41.3821 23.1755 41.6672 24.3159C41.9523 25.4412 42.0424 26.6267 41.9823 27.8871H30.4434C30.4434 29.1475 30.8635 30.3479 31.5087 30.9932L31.4337 31.0082ZM36.4709 22.5888C35.9458 22.0186 35.0605 21.7035 33.9801 21.7035C33.2899 21.7035 32.7047 21.8085 32.2395 22.0636C31.7743 22.2887 31.4142 22.5888 31.1291 22.9489C30.844 23.309 30.649 23.6691 30.5289 24.0743C30.4239 24.4644 30.3488 24.8245 30.3338 25.1396H37.4763C37.3713 24.0143 36.9811 23.189 36.4709 22.6038V22.5888ZM16.4136 12.7454C17.4639 12.7454 18.4243 12.8354 19.2946 13.0305C20.1649 13.2256 20.9001 13.5257 21.5153 13.9458C22.1305 14.3659 22.6257 14.9211 22.9558 15.6264C23.3009 16.3316 23.466 17.2019 23.466 18.2223C23.466 19.3327 23.2109 20.263 22.7157 21.0132C22.2056 21.7635 21.4553 22.3637 20.45 22.8439C21.8154 23.234 22.8208 23.9242 23.496 24.8996C24.1562 25.8899 24.4863 27.0753 24.4863 28.4408C24.4863 29.5662 24.2913 30.5265 23.8711 31.3368C23.451 32.1621 22.8658 32.8373 22.1305 33.3625C21.4103 33.8876 20.555 34.2628 19.6247 34.5179C18.7094 34.7579 17.749 34.893 16.7587 34.893H6V12.7604H16.4136V12.7454ZM15.7834 21.6705C16.6386 21.6705 17.3589 21.4754 17.9291 21.0552C18.4843 20.6501 18.7544 19.9749 18.7544 19.0446C18.7544 18.5344 18.6493 18.0992 18.4843 17.7691C18.2892 17.439 18.0341 17.1839 17.734 17.0039C17.4189 16.8238 17.0588 16.6887 16.6537 16.6137C16.2485 16.5387 15.8134 16.5087 15.3932 16.5087H10.8467V21.6705H15.7834ZM10.8617 25.0136V31.0907H16.0534V31.0757C16.5336 31.0757 16.9838 31.0307 17.4189 30.9256C17.8541 30.8356 18.2292 30.6855 18.5593 30.4755C18.8744 30.2804 19.1445 29.9953 19.3396 29.6052C19.5346 29.2451 19.6247 28.7499 19.6247 28.1647C19.6247 27.0393 19.2946 26.229 18.6643 25.7338C18.0191 25.2537 17.1788 25.0136 16.1285 25.0136H10.8617Z"/></g></svg>

<svg xmlns="http://www.w3.org/2000/svg" fill="none" aria-hidden="true" viewBox="0 0 48 48"><path fill="#1769FF" d="M38.393 14.226v2.191h-8.958v-2.19h8.958Zm-6.96 16.782c.66.63 1.606.945 2.822.945.885 0 1.65-.21 2.295-.66.646-.435 1.02-.915 1.17-1.41h3.887c-.6 1.92-1.575 3.3-2.85 4.126-1.276.84-2.822 1.246-4.622 1.246-1.246 0-2.371-.196-3.406-.6a7.464 7.464 0 0 1-2.581-1.711c-.69-.735-1.23-1.62-1.621-2.656-.375-1.035-.555-2.176-.555-3.406 0-1.216.195-2.311.6-3.346a8.321 8.321 0 0 1 1.68-2.686 8.37 8.37 0 0 1 2.611-1.8c1.006-.451 2.101-.646 3.332-.646 1.365 0 2.535.24 3.57.78a7.203 7.203 0 0 1 2.492 2.1c.66.886 1.125 1.892 1.41 3.032.285 1.125.375 2.31.315 3.571H30.443c0 1.26.42 2.46 1.066 3.106l-.075.015Zm5.038-8.42c-.525-.57-1.41-.885-2.49-.885-.691 0-1.276.105-1.742.36a3.124 3.124 0 0 0-1.11.886c-.285.36-.48.72-.6 1.125-.105.39-.18.75-.195 1.066h7.142c-.105-1.126-.495-1.951-1.005-2.536v-.015Zm-20.057-9.843c1.05 0 2.01.09 2.88.286.87.195 1.606.495 2.221.915.616.42 1.11.975 1.44 1.68.346.706.511 1.576.511 2.596 0 1.11-.255 2.041-.75 2.791-.51.75-1.26 1.35-2.266 1.83 1.365.391 2.37 1.081 3.046 2.057.66.99.99 2.175.99 3.54 0 1.126-.195 2.086-.615 2.897a5.552 5.552 0 0 1-1.74 2.025c-.72.526-1.576.9-2.506 1.156-.916.24-1.876.375-2.866.375H6V12.76h10.414v-.015Zm-.63 8.926c.855 0 1.575-.196 2.145-.616.555-.405.825-1.08.825-2.01 0-.51-.105-.946-.27-1.276a2.159 2.159 0 0 0-.75-.765 3.419 3.419 0 0 0-1.08-.39 7.032 7.032 0 0 0-1.26-.105h-4.547v5.162h4.936Zm-4.922 3.343v6.077h5.191v-.015c.48 0 .93-.045 1.366-.15.435-.09.81-.24 1.14-.45.315-.196.585-.48.78-.87.196-.36.286-.856.286-1.441 0-1.126-.33-1.936-.96-2.431-.646-.48-1.486-.72-2.537-.72h-5.266Z"/></svg>
